X:18
T:Happy Conclusion.
T:John Malchairs Third Collection of Tunes
%%VWML:Malchair-3619-p18
F:https://www.vwml.org/record/Malchair/3619/p18
F:www.vwml.org/topics/historic-dance-and-tune-books/Malchair
Z:Peter Dunk Jan 2020
M:C|
L:1/4
K:G
G/A/|BB B/A/B/c/|AAAB|cc c/B/c/d/|B3 B/c/|
ddd e/d/|ccc d/c/|B/A/G/A/ A3/G/|G3||
B/c/|dd d/e/ _f|e c2 G/A/|B B/c/ d c/B/|A3 A/B/|
c e2 d/c/|B/c/ d e/f/ g|f/e/d/g/ af|g3|]
W:
T:Charming Maid
T:John Malchairs Third Collection of Tunes
F:https://www.vwml.org/record/Malchair/3619/p18
F:www.vwml.org/topics/historic-dance-and-tune-books/Malchair
Z:Peter Dunk Jan 2020
M:C|
L:1/8
K:G
G,A,B,C DCB,A,|G,2 G2F2G2|A4B4|cBAG FABc|
d2D2 c4|B2c2A2G2|F2G2 (BA)(GF)|G8||
DEFG AGFE|DEFG A2D2|GABc dcBA|GABc d2G2|
cBcd efed|cdcB ABcd|edcB cBAG|F4 D2B/c/|dBGB dBGB|
A4 D2F2|G2A2B2c2|d4 gfed|edcB A3G|G8|]

